X: 31852
T: Paul's
R: jig
M: 6/8
K: Gmajor
|:B2 c|d^cd e2 c|dBG D2 G|B2 d c B2|A E2- E2 G|
A2 B A2 G|FD/E/F d2 A|1 d^cd e>d=c|B3-:|2 dA/B/c e2 F|G3- G2||
|:c|BDD BDD|B3 BcA|GDG d2 c|c3 cG/A/B|
ced cc/B/A|G>FE D3|1 d^cd e2 =c|B3- B2:|2 dFd e2 F|G3||

